X: 2
T:Listen to the Mocking Bird
M:4/4
L: 1/4
Q: 1/2=50
K: Eb
 g/4g/4g/4g/4 | g/2f/2 f2 f/4f/4f/4f/4 | f/2e/2 e2 e/2e/2 | f/2f/2f/2f/2 f/2a/2g/2f/2 |
 g3 g/4g/4g/4g/4 | g/2f/2 f2 f/4f/4f/4f/4 | f/2e/2 e2 g/2g/2 | a/2c'/2c'/2c'/2 c'/2b/2a/2f/2 | e3 |]
